svgs/regular/square-1.svg

<svg xmlns="http://www.w3.org/2000/svg" viewBox="0 0 448 512"><!-- Font Awesome Pro 6.0.0-alpha2 by @fontawesome - https://fontawesome.com License - https://fontawesome.com/license (Commercial License) --><path d="M384 32H64C28.654 32 0 60.654 0 96V416C0 451.346 28.654 480 64 480H384C419.348 480 448 451.346 448 416V96C448 60.654 419.348 32 384 32ZM400 416C400 424.822 392.822 432 384 432H64C55.178 432 48 424.822 48 416V96C48 87.178 55.178 80 64 80H384C392.822 80 400 87.178 400 96V416ZM288 336H248V152C248 143.156 243.125 135.031 235.328 130.844C227.547 126.656 218.078 127.094 210.688 132.031L158.688 166.688C147.656 174.031 144.672 188.938 152.031 199.969C159.359 210.969 174.266 213.937 185.313 206.625L200 196.844V336H160C146.75 336 136 346.75 136 360S146.75 384 160 384H288C301.25 384 312 373.25 312 360S301.25 336 288 336Z"/></svg>

<svg xmlns="http://www.w3.org/2000/svg" viewBox="0 0 448 512"><!--! Font Awesome Pro 6.4.0 by @fontawesome - https://fontawesome.com License - https://fontawesome.com/license (Commercial License) Copyright 2023 Fonticons, Inc. --><path d="M384 80c8.8 0 16 7.2 16 16V416c0 8.8-7.2 16-16 16H64c-8.8 0-16-7.2-16-16V96c0-8.8 7.2-16 16-16H384zM64 32C28.7 32 0 60.7 0 96V416c0 35.3 28.7 64 64 64H384c35.3 0 64-28.7 64-64V96c0-35.3-28.7-64-64-64H64zm172 99.2c-7.4-4.3-16.5-4.3-24-.1l-56 32c-11.5 6.6-15.5 21.2-8.9 32.7s21.2 15.5 32.7 8.9L200 193.4V336H160c-13.3 0-24 10.7-24 24s10.7 24 24 24h64 64c13.3 0 24-10.7 24-24s-10.7-24-24-24H248V152c0-8.6-4.6-16.5-12-20.8z"/></svg>
